Yaru++/mimetypes/scalable/application-x-yaml.svg

<svg height="256" viewBox="0 0 67.73 67.73" width="256" xmlns="http://www.w3.org/2000/svg" xmlns:xlink="http://www.w3.org/1999/xlink"><radialGradient id="a" cx="179.99261" cy="103.2822" gradientTransform="matrix(1.3687341 -.00000021 .0000002 1.3528551 -121.02851 -70.900578)" gradientUnits="userSpaceOnUse" r="35.068905"><stop offset="0"/><stop offset="1" stop-opacity="0"/></radialGradient><filter id="b" color-interpolation-filters="sRGB" height="1.144" width="1.144" x="-.072" y="-.072"><feGaussianBlur stdDeviation="1.98"/></filter><linearGradient id="c" gradientTransform="matrix(0 -.11988342 .11987999 0 .362762 62.7494)" gradientUnits="userSpaceOnUse" x1="529.65515" x2="-35.310345" y1="401.58368" y2="119.09284"><stop offset="0" stop-color="#f2f2f2"/><stop offset="1" stop-color="#f9f9f9"/></linearGradient><linearGradient id="d" gradientUnits="userSpaceOnUse" x1="88" x2="488" y1="88" y2="488"><stop offset="0" stop-opacity=".588235"/><stop offset=".88" stop-opacity="0"/><stop offset="1"/></linearGradient><filter id="e" color-interpolation-filters="sRGB" height="1.087725" width="1.105998" x="-.052999" y="-.043863"><feGaussianBlur stdDeviation="8.4801079"/></filter><filter id="f" color-interpolation-filters="sRGB" height="1.021931" width="1.0265" x="-.01325" y="-.010966"><feGaussianBlur stdDeviation="2.120027"/></filter><path d="m20.703991 3.4856496c-9.338465 0-10.343273.959178-10.297505 10.3165314v19.315345 19.315344c-.04577 9.357355.95904 10.316531 10.297505 10.316531h25.969365c9.338465 0 10.297506-.959068 10.297506-10.316531v-19.315344-12.699376l-16.9325-16.9325004z" fill="none" opacity=".2" stroke="#000" stroke-width="1.058281"/><path d="m189.84323 74c-70.59344 0-78.18921 7.250835-77.84323 77.98706v146.01294 146.01294c-.34598 70.73623 7.24979 77.98706 77.84323 77.98706h196.31354c70.59344 0 76.00668-7.27384 77.84323-77.98706v-146.01294-98l-128-126z" filter="url(#f)" opacity=".1" transform="matrix(.13228516 0 0 .13228516 -4.409451 -6.038882)"/><path d="m189.84323 74c-70.59344 0-78.18921 7.250835-77.84323 77.98706v146.01294 146.01294c-.34598 70.73623 7.24979 77.98706 77.84323 77.98706h196.31354c70.59344 0 77.84323-7.24999 77.84323-77.98706v-146.01294-96l-128-128z" fill="url(#d)" filter="url(#e)" opacity=".3" transform="matrix(.13228516 0 0 .13228516 -4.409451 -6.038882)"/><path d="m20.703991 3.4856496c-9.338465 0-10.343273.959178-10.297505 10.3165314v19.315345 19.315344c-.04577 9.357355.95904 10.316531 10.297505 10.316531h25.969365c9.338465 0 10.297506-.959068 10.297506-10.316531v-19.315344-12.699376l-16.9325-16.9325004z" fill="url(#c)"/><path d="m20.70406 3.4856496c-9.338467 0-10.343342.95934-10.297574 10.3166924v.529141c-.045768-9.3573534.959107-10.3166924 10.297574-10.3166924h19.334302v-.529141z" fill="#fff" opacity=".6"/><g enable-background="new" fill="#f09020" transform="matrix(.26457031 0 0 .26457031 -6.526015 -2.864038)"><path d="m192 227.9998-7.95391.0344v-21.15563c-3.72976 3.57586-12.11533 10.68698-12.11533 10.68698l-11.93076-10.68698v21.12143l-8-.0436v-31.95617s5.52774.0342 7.64946.0671c.26076 0 .54932.28.76305.4916 3.18471 3.1605 11.54604 10.21033 11.54604 10.21033s8.91565-7.50653 11.48908-10.10774c.37683-.42619.92817-.65618 1.49616-.62412 1.62656.0299 5.35913-.0374 7.05621-.0374z"/><path d="m127.14125 205.10182s5.74117-5.70061 8.62776-8.53598c.25822-.25395.6402-.53564.96457-.54204 2.46689-.0285 7.2676-.0234 7.2676-.0234v31.9996h-8.00118v-20.80306s-13.57205 13.57985-20.05371 20.06863c-.45057.49497-1.09835.76332-1.76695.73197-3.02175-.0405-9.9551-.009-9.9551-.009z"/><path d="m100.52956 212.62699-16.65456-16.62698s6.5 0 8.68031.007c.59603-.0362 1.1765.19884 1.5795.63947 3.44464 3.49153 6.91486 6.9447 10.38508 10.40425.24512.24514.50518.47322.79081.73967 3.68338-3.6642 7.33904-7.2751 10.95634-10.92437.59257-.59897 1.17449-.88247 2.03139-.86542 1.67656-.0008 8.41299-.0008 8.41299-.0008s-12.19694 12.20283-17.3635 17.35394c-4.65112 4.63192-9.32355 9.24467-13.96187 13.89152-.47434.51688-1.15634.79249-1.85661.75032-2.35444.00441-8.259882.00441-8.259882.00441z"/><path d="m200 196h8v26s10.44991.0106 15.2573-.015c.60169-.0383 1.18843.19759 1.59605.64183 1.51047 1.56395 3.04299 3.14814 4.57914 4.68642.19255.19254.36157.40649.60761.68677l-30.0401.00002z"/></g><g enable-background="new" fill="none" stroke="#999" stroke-width="8" transform="matrix(.26457031 0 0 .26457031 -6.526015 -1.805756)"><ellipse cx="152.00093" cy="115.98207" rx="52" ry="20" stroke-dashoffset="1" stroke-linejoin="round"/><path d="m99.99908 115.98797v48"/><g stroke-dashoffset="1" stroke-linejoin="round"><path d="m204.00093 131.98209a52 20 0 0 1 -26 17.3205 52 20 0 0 1 -52 0 52 20 0 0 1 -26-17.3205"/><path d="m204.00093 147.98207a52 20 0 0 1 -26 17.32051 52 20 0 0 1 -52 0 52 20 0 0 1 -26-17.32051"/><path d="m204.00093 163.98207a52 20 0 0 1 -26 17.32051 52 20 0 0 1 -52 0 52 20 0 0 1 -26-17.32051"/></g><path d="m203.99908 115.98797v48"/></g><g fill="#fff"><path d="m33.688674 3.4856496v59.2637514h12.984614c9.338464 0 10.054627-.962123 10.297574-10.316435v-19.31544-12.699376l-16.9325-16.9325004z" opacity=".1"/><path d="m10.406486 33.117526v19.31544c-.04577 9.357354.959108 10.316435 10.297574 10.316435h25.969228c9.338464 0 10.054627-.962123 10.297574-10.316435v-19.31544z" opacity=".2"/><path d="m41.096643 62.749401 15.874219-15.874219v5.948567c-.01384 8.994282-1.006077 9.925652-10.099734 9.925652z" opacity=".4"/></g><path d="m185.33354 74.825228-66-65.9999998.003 24.9985698v1 .53711c0 35.29429 3.62603 39.63197 38.99414 39.45899z" fill="url(#a)" filter="url(#b)" opacity=".2" transform="matrix(.26457031 0 0 .26457031 7.937109 1.150757)"/><path d="m56.970862 20.947291v-.529141l-16.9325-16.9325004h-.529141v6.6140184.26457.142104c0 9.118097 1.587422 10.440949 10.316692 10.439679z" opacity=".15"/><path d="m56.970086 20.41674-16.930949-16.9309514v6.084601.26457.142104c0 9.3378204.95934 10.4854424 10.316692 10.4396764z" fill="#faf8f6"/></svg>

<?xml version="1.0" encoding="UTF-8" standalone="no"?>
<svg
   xmlns:dc="http://purl.org/dc/elements/1.1/"
   xmlns:cc="http://creativecommons.org/ns#"
   xmlns:rdf="http://www.w3.org/1999/02/22-rdf-syntax-ns#"
   xmlns:svg="http://www.w3.org/2000/svg"
   xmlns="http://www.w3.org/2000/svg"
   xmlns:xlink="http://www.w3.org/1999/xlink"
   xmlns:sodipodi="http://sodipodi.sourceforge.net/DTD/sodipodi-0.dtd"
   xmlns:inkscape="http://www.inkscape.org/namespaces/inkscape"
   height="256"
   viewBox="0 0 67.73 67.73"
   width="256"
   version="1.1"
   id="svg63"
   sodipodi:docname="application-x-yaml.svg"
   inkscape:version="0.92.5 (2060ec1f9f, 2020-04-08)">
  <metadata
     id="metadata69">
    <rdf:RDF>
      <cc:Work
         rdf:about="">
        <dc:format>image/svg+xml</dc:format>
        <dc:type
           rdf:resource="http://purl.org/dc/dcmitype/StillImage" />
      </cc:Work>
    </rdf:RDF>
  </metadata>
  <defs
     id="defs67">
    <radialGradient
       inkscape:collect="always"
       xlink:href="#linearGradient1750"
       id="radialGradient1752"
       cx="179.99261"
       cy="103.2822"
       fx="179.99261"
       fy="103.2822"
       r="35.068905"
       gradientTransform="matrix(1.3687341,-2.0954866e-7,2.0316901e-7,1.3528551,-121.02851,-70.900578)"
       gradientUnits="userSpaceOnUse" />
    <linearGradient
       inkscape:collect="always"
       id="linearGradient1750">
      <stop
         style="stop-color:#000000;stop-opacity:1;"
         offset="0"
         id="stop1746" />
      <stop
         style="stop-color:#000000;stop-opacity:0;"
         offset="1"
         id="stop1748" />
    </linearGradient>
    <filter
       inkscape:collect="always"
       style="color-interpolation-filters:sRGB"
       id="filter2553"
       x="-0.071999997"
       width="1.1440001"
       y="-0.071999997"
       height="1.1440001">
      <feGaussianBlur
         inkscape:collect="always"
         stdDeviation="1.98"
         id="feGaussianBlur2555" />
    </filter>
    <linearGradient
       gradientUnits="userSpaceOnUse"
       y2="119.09284"
       x2="-35.310345"
       y1="401.58368"
       x1="529.65515"
       id="linearGradient4226"
       xlink:href="#linearGradient4338"
       inkscape:collect="always"
       gradientTransform="matrix(0,-0.11988342,0.11987999,0,0.3627617,62.7494)" />
    <linearGradient
       inkscape:collect="always"
       id="linearGradient4338">
      <stop
         style="stop-color:#f2f2f2;stop-opacity:1"
         offset="0"
         id="stop4340" />
      <stop
         style="stop-color:#f9f9f9;stop-opacity:1"
         offset="1"
         id="stop4342" />
    </linearGradient>
    <linearGradient
       inkscape:collect="always"
       xlink:href="#linearGradient4360"
       id="linearGradient4358"
       x1="88"
       y1="88"
       x2="488"
       y2="488"
       gradientUnits="userSpaceOnUse" />
    <linearGradient
       id="linearGradient4360"
       inkscape:collect="always">
      <stop
         id="stop4362"
         offset="0"
         style="stop-color:#000000;stop-opacity:0.58823532" />
      <stop
         style="stop-color:#000000;stop-opacity:0"
         offset="0.88"
         id="stop4364" />
      <stop
         id="stop4366"
         offset="1"
         style="stop-color:#000000;stop-opacity:1" />
    </linearGradient>
    <filter
       inkscape:collect="always"
       style="color-interpolation-filters:sRGB"
       id="filter4380"
       x="-0.052999184"
       width="1.1059984"
       y="-0.043862626"
       height="1.0877253">
      <feGaussianBlur
         inkscape:collect="always"
         stdDeviation="8.4801079"
         id="feGaussianBlur4382" />
    </filter>
    <filter
       inkscape:collect="always"
       style="color-interpolation-filters:sRGB"
       id="filter4346"
       x="-0.013249796"
       width="1.0264996"
       y="-0.010965657"
       height="1.0219313">
      <feGaussianBlur
         inkscape:collect="always"
         stdDeviation="2.120027"
         id="feGaussianBlur4348" />
    </filter>
  </defs>
  <sodipodi:namedview
     pagecolor="#ffffff"
     bordercolor="#666666"
     borderopacity="1"
     objecttolerance="10"
     gridtolerance="10"
     guidetolerance="10"
     inkscape:pageopacity="0"
     inkscape:pageshadow="2"
     inkscape:window-width="834"
     inkscape:window-height="480"
     id="namedview65"
     showgrid="false"
     inkscape:zoom="0.921875"
     inkscape:cx="128"
     inkscape:cy="128"
     inkscape:window-x="0"
     inkscape:window-y="28"
     inkscape:window-maximized="0"
     inkscape:current-layer="svg63" />
  <linearGradient
     id="a"
     gradientTransform="matrix(0 -.11988932 .11988589 0 .36278 292.5483)"
     gradientUnits="userSpaceOnUse"
     x1="529.655"
     x2="-35.31"
     y1="401.584"
     y2="119.093">
    <stop
       offset="0"
       stop-color="#f2f2f2"
       id="stop2" />
    <stop
       offset="1"
       stop-color="#f9f9f9"
       id="stop4" />
  </linearGradient>
  <linearGradient
     id="b"
     gradientUnits="userSpaceOnUse"
     x1="88"
     x2="488"
     y1="88"
     y2="488">
    <stop
       offset="0"
       stop-opacity=".588235"
       id="stop7" />
    <stop
       offset=".88"
       stop-opacity="0"
       id="stop9" />
    <stop
       offset="1"
       id="stop11" />
  </linearGradient>
  <filter
     id="c"
     color-interpolation-filters="sRGB"
     height="1.022"
     width="1.026"
     x="-.01"
     y="-.01">
    <feGaussianBlur
       stdDeviation="2.12"
       id="feGaussianBlur14" />
  </filter>
  <path
     sodipodi:nodetypes="scccssscccs"
     inkscape:connector-curvature="0"
     id="path1163"
     d="m 20.703991,3.4856496 c -9.338465,0 -10.343273,0.959178 -10.297505,10.3165314 V 33.117526 52.43287 c -0.04577,9.357355 0.95904,10.316531 10.297505,10.316531 h 25.969365 c 9.338465,0 10.297506,-0.959068 10.297506,-10.316531 V 33.117526 20.41815 L 40.038362,3.4856496 Z"
     style="color:#000000;display:inline;overflow:visible;visibility:visible;opacity:0.2;fill:none;fill-opacity:1;fill-rule:nonzero;stroke:#000000;stroke-width:1.0582813;stroke-miterlimit:4;stroke-dasharray:none;stroke-opacity:1;marker:none;enable-background:accumulate" />
  <path
     style="color:#000000;display:inline;overflow:visible;visibility:visible;opacity:0.1;fill:#000000;fill-opacity:1;fill-rule:nonzero;stroke:none;stroke-width:2;marker:none;filter:url(#filter4346);enable-background:accumulate"
     d="M 189.84323,74 C 119.24979,74 111.65402,81.250835 112,151.98706 V 298 444.01294 C 111.65402,514.74917 119.24979,522 189.84323,522 H 386.15677 C 456.75021,522 462.16345,514.72616 464,444.01294 V 298 200 L 336,74 Z"
     id="rect4158-9"
     inkscape:connector-curvature="0"
     sodipodi:nodetypes="scccssscccs"
     transform="matrix(0.13228516,0,0,0.13228516,-4.4094514,-6.0388816)" />
  <path
     sodipodi:nodetypes="scccssscccs"
     inkscape:connector-curvature="0"
     id="path4350"
     d="M 189.84323,74 C 119.24979,74 111.65402,81.250835 112,151.98706 V 298 444.01294 C 111.65402,514.74917 119.24979,522 189.84323,522 H 386.15677 C 456.75021,522 464,514.75001 464,444.01294 V 298 202 L 336,74 Z"
     style="color:#000000;display:inline;overflow:visible;visibility:visible;opacity:0.3;fill:url(#linearGradient4358);fill-opacity:1;fill-rule:nonzero;stroke:none;stroke-width:2;marker:none;filter:url(#filter4380);enable-background:accumulate"
     transform="matrix(0.13228516,0,0,0.13228516,-4.4094514,-6.0388816)" />
  <path
     style="color:#000000;display:inline;overflow:visible;visibility:visible;fill:url(#linearGradient4226);fill-opacity:1;fill-rule:nonzero;stroke:none;stroke-width:0.26457033;marker:none;enable-background:accumulate"
     d="m 20.703991,3.4856496 c -9.338465,0 -10.343273,0.959178 -10.297505,10.3165314 V 33.117526 52.43287 c -0.04577,9.357355 0.95904,10.316531 10.297505,10.316531 h 25.969365 c 9.338465,0 10.297506,-0.959068 10.297506,-10.316531 V 33.117526 20.41815 L 40.038362,3.4856496 Z"
     id="rect4158"
     inkscape:connector-curvature="0"
     sodipodi:nodetypes="scccssscccs" />
  <path
     style="color:#000000;display:inline;overflow:visible;visibility:visible;opacity:0.6;fill:#ffffff;fill-opacity:1;fill-rule:nonzero;stroke:none;stroke-width:0.26457033;marker:none;enable-background:accumulate"
     d="m 20.70406,3.4856496 c -9.338467,0 -10.343342,0.95934 -10.297574,10.3166924 v 0.529141 C 10.360718,4.9741296 11.365593,4.0147906 20.70406,4.0147906 h 19.334302 v -0.529141 z"
     id="path931"
     inkscape:connector-curvature="0"
     sodipodi:nodetypes="sccsccs" />
  <g
     transform="matrix(0.26457031,0,0,0.26457031,-6.5260145,-2.8640376)"
     style="display:inline;enable-background:new"
     id="g1079">
    <path
       sodipodi:nodetypes="ccccccccccccccc"
       inkscape:connector-curvature="0"
       id="path8"
       d="m 192,227.9998 -7.95391,0.0344 v -21.15563 c -3.72976,3.57586 -12.11533,10.68698 -12.11533,10.68698 L 160,206.87857 V 228 l -8,-0.0436 v -31.95617 c 0,0 5.52774,0.0342 7.64946,0.0671 0.26076,0 0.54932,0.28 0.76305,0.4916 3.18471,3.1605 11.54604,10.21033 11.54604,10.21033 0,0 8.91565,-7.50653 11.48908,-10.10774 0.37683,-0.42619 0.92817,-0.65618 1.49616,-0.62412 C 186.57035,196.0673 190.30292,196 192,196 Z"
       class="cls-1"
       style="fill:#f09020;fill-opacity:1;stroke:none;stroke-width:0.21373941" />
    <path
       sodipodi:nodetypes="ccccccccccc"
       inkscape:connector-curvature="0"
       id="path10"
       d="m 127.14125,205.10182 c 0,0 5.74117,-5.70061 8.62776,-8.53598 0.25822,-0.25395 0.6402,-0.53564 0.96457,-0.54204 2.46689,-0.0285 7.2676,-0.0234 7.2676,-0.0234 V 228 H 136 v -20.80306 c 0,0 -13.57205,13.57985 -20.05371,20.06863 -0.45057,0.49497 -1.09835,0.76332 -1.76695,0.73197 -3.02175,-0.0405 -9.9551,-0.009 -9.9551,-0.009 z"
       class="cls-1"
       style="fill:#f09020;fill-opacity:1;stroke:none;stroke-width:0.21339986" />
    <path
       sodipodi:nodetypes="cccccccccccccc"
       inkscape:connector-curvature="0"
       id="path12"
       d="M 100.52956,212.62699 83.875,196.00001 c 0,0 6.5,0 8.68031,0.007 0.59603,-0.0362 1.1765,0.19884 1.5795,0.63947 3.44464,3.49153 6.91486,6.9447 10.38508,10.40425 0.24512,0.24514 0.50518,0.47322 0.79081,0.73967 3.68338,-3.6642 7.33904,-7.2751 10.95634,-10.92437 0.59257,-0.59897 1.17449,-0.88247 2.03139,-0.86542 1.67656,-8e-4 8.41299,-8e-4 8.41299,-8e-4 0,0 -12.19694,12.20283 -17.3635,17.35394 -4.65112,4.63192 -9.32355,9.24467 -13.96187,13.89152 -0.47434,0.51688 -1.15634,0.79249 -1.85661,0.75032 C 91.175,228 85.269558,228 85.269558,228 Z"
       class="cls-1"
       style="fill:#f09020;fill-opacity:1;stroke:none;stroke-width:0.21315826" />
    <path
       sodipodi:nodetypes="ccccccccc"
       inkscape:connector-curvature="0"
       id="path14"
       d="m 200,196 h 8 v 26 c 0,0 10.44991,0.0106 15.2573,-0.015 0.60169,-0.0383 1.18843,0.19759 1.59605,0.64183 1.51047,1.56395 3.04299,3.14814 4.57914,4.68642 0.19255,0.19254 0.36157,0.40649 0.60761,0.68677 l -30.0401,2e-5 z"
       class="cls-1"
       style="fill:#f09020;fill-opacity:1;stroke:none;stroke-width:0.21394691" />
  </g>
  <g
     style="display:inline;enable-background:new"
     id="g1073"
     transform="matrix(0.26457031,0,0,0.26457031,-6.5260145,-1.8057564)">
    <ellipse
       style="opacity:1;fill:none;fill-opacity:1;stroke:#999999;stroke-width:8;stroke-linecap:butt;stroke-linejoin:round;stroke-miterlimit:4;stroke-dasharray:none;stroke-dashoffset:1;stroke-opacity:1"
       id="ellipse925"
       cx="152.00093"
       cy="115.98207"
       rx="52"
       ry="20" />
    <path
       sodipodi:nodetypes="cc"
       inkscape:connector-curvature="0"
       id="path921"
       d="m 99.99908,115.98797 v 48"
       style="fill:none;fill-rule:evenodd;stroke:#999999;stroke-width:8;stroke-linecap:butt;stroke-linejoin:miter;stroke-miterlimit:4;stroke-dasharray:none;stroke-opacity:1" />
    <path
       style="opacity:1;fill:none;fill-opacity:1;stroke:#999999;stroke-width:8;stroke-linecap:butt;stroke-linejoin:round;stroke-miterlimit:4;stroke-dasharray:none;stroke-dashoffset:1;stroke-opacity:1"
       id="path1134"
       sodipodi:type="arc"
       sodipodi:cx="152.00093"
       sodipodi:cy="131.98209"
       sodipodi:rx="52"
       sodipodi:ry="20"
       sodipodi:start="0"
       sodipodi:end="3.1415927"
       d="m 204.00093,131.98209 a 52,20 0 0 1 -26,17.3205 52,20 0 0 1 -52,0 52,20 0 0 1 -26,-17.3205"
       sodipodi:open="true" />
    <path
       sodipodi:open="true"
       d="m 204.00093,147.98207 a 52,20 0 0 1 -26,17.32051 52,20 0 0 1 -52,0 52,20 0 0 1 -26,-17.32051"
       sodipodi:end="3.1415927"
       sodipodi:start="0"
       sodipodi:ry="20"
       sodipodi:rx="52"
       sodipodi:cy="147.98207"
       sodipodi:cx="152.00093"
       sodipodi:type="arc"
       id="path1136"
       style="opacity:1;fill:none;fill-opacity:1;stroke:#999999;stroke-width:8;stroke-linecap:butt;stroke-linejoin:round;stroke-miterlimit:4;stroke-dasharray:none;stroke-dashoffset:1;stroke-opacity:1" />
    <path
       style="opacity:1;fill:none;fill-opacity:1;stroke:#999999;stroke-width:8;stroke-linecap:butt;stroke-linejoin:round;stroke-miterlimit:4;stroke-dasharray:none;stroke-dashoffset:1;stroke-opacity:1"
       id="path1138"
       sodipodi:type="arc"
       sodipodi:cx="152.00093"
       sodipodi:cy="163.98207"
       sodipodi:rx="52"
       sodipodi:ry="20"
       sodipodi:start="0"
       sodipodi:end="3.1415927"
       d="m 204.00093,163.98207 a 52,20 0 0 1 -26,17.32051 52,20 0 0 1 -52,0 52,20 0 0 1 -26,-17.32051"
       sodipodi:open="true" />
    <path
       style="fill:none;fill-rule:evenodd;stroke:#999999;stroke-width:8;stroke-linecap:butt;stroke-linejoin:miter;stroke-miterlimit:4;stroke-dasharray:none;stroke-opacity:1"
       d="m 203.99908,115.98797 v 48"
       id="path1140"
       inkscape:connector-curvature="0"
       sodipodi:nodetypes="cc" />
  </g>
  <path
     style="color:#000000;display:inline;overflow:visible;visibility:visible;opacity:0.1;fill:#ffffff;fill-opacity:1;fill-rule:nonzero;stroke:none;stroke-width:0.26457033;marker:none;enable-background:accumulate"
     d="M 33.688674,3.4856496 V 62.749401 h 12.984614 c 9.338464,0 10.054627,-0.962123 10.297574,-10.316435 V 33.117526 20.41815 L 40.038362,3.4856496 Z"
     id="path4231"
     inkscape:connector-curvature="0"
     sodipodi:nodetypes="ccsscccc" />
  <path
     inkscape:connector-curvature="0"
     style="color:#000000;display:inline;overflow:visible;visibility:visible;opacity:0.2;fill:#ffffff;fill-opacity:1;fill-rule:nonzero;stroke:none;stroke-width:0.26457033;marker:none;enable-background:accumulate"
     d="m 10.406486,33.117526 v 19.31544 c -0.04577,9.357354 0.959108,10.316435 10.297574,10.316435 h 25.969228 c 9.338464,0 10.054627,-0.962123 10.297574,-10.316435 v -19.31544 z"
     id="path4255"
     sodipodi:nodetypes="ccssscc" />
  <path
     style="color:#000000;display:inline;overflow:visible;visibility:visible;opacity:0.4;fill:#ffffff;fill-opacity:1;fill-rule:nonzero;stroke:none;stroke-width:2.11656237;stroke-linecap:butt;stroke-linejoin:miter;stroke-miterlimit:4;stroke-dasharray:none;stroke-dashoffset:0;stroke-opacity:1;marker:none;enable-background:accumulate"
     d="M 41.096643,62.749401 56.970862,46.875182 v 5.948567 c -0.01384,8.994282 -1.006077,9.925652 -10.099734,9.925652 z"
     id="path4254"
     inkscape:connector-curvature="0"
     sodipodi:nodetypes="cccsc" />
  <path
     inkscape:connector-curvature="0"
     style="color:#000000;display:inline;overflow:visible;visibility:visible;opacity:0.2;fill:url(#radialGradient1752);fill-opacity:1;fill-rule:nonzero;stroke:none;stroke-width:1;marker:none;filter:url(#filter2553);enable-background:accumulate"
     d="m 185.33354,74.825228 -66,-65.9999998 0.003,24.9985698 v 1 0.53711 c 0,35.29429 3.62603,39.63197 38.99414,39.45899 z"
     id="rect4158-0-3-6"
     sodipodi:nodetypes="ccccscc"
     transform="matrix(0.26457031,0,0,0.26457031,7.9371086,1.1507566)" />
  <path
     inkscape:connector-curvature="0"
     style="color:#000000;display:inline;overflow:visible;visibility:visible;opacity:0.15;fill:#000000;fill-opacity:1;fill-rule:nonzero;stroke:none;stroke-width:0.26457033;marker:none;enable-background:accumulate"
     d="M 56.970862,20.947291 V 20.41815 L 40.038362,3.4856496 h -0.529141 v 6.6140184 0.26457 0.142104 c 0,9.118097 1.587422,10.440949 10.316692,10.439679 z"
     id="rect4158-0-3-2"
     sodipodi:nodetypes="ccccccscc" />
  <path
     inkscape:connector-curvature="0"
     style="color:#000000;display:inline;overflow:visible;visibility:visible;fill:#faf8f6;fill-opacity:1;fill-rule:nonzero;stroke:none;stroke-width:0.26457033;marker:none;enable-background:accumulate"
     d="M 56.970086,20.41674 40.039137,3.4857886 v 6.084601 0.26457 0.142104 c 0,9.3378204 0.95934,10.4854424 10.316692,10.4396764 z"
     id="rect4158-0-3" />
</svg>
